svg/bell-twotone-loop.svg

<svg xmlns="http://www.w3.org/2000/svg" width="24" height="24" viewBox="0 0 24 24">
	<g fill="none" stroke="currentColor" stroke-width="2" stroke-linecap="round">
		<g>
			<path d="M12 3V5" stroke-dasharray="4" stroke-dashoffset="4">
				<animate attributeName="stroke-dashoffset" values="4;0" dur="0.2s" fill="freeze" />
			</path>
			<path d="M12 5C8.68629 5 6 7.68629 6 11L6 17C5 17 4 18 4 19H12M12 5C15.3137 5 18 7.68629 18 11L18 17C19 17 20 18 20 19H12" fill="currentColor" fill-opacity="0" stroke-dasharray="28" stroke-dashoffset="28">
				<animate attributeName="stroke-dashoffset" values="28;0" begin="0.2s" dur="0.4s" fill="freeze" />
				<animate attributeName="fill-opacity" values="0;0.3" begin="0.8s" dur="0.15s" fill="freeze" />
			</path>
			<animateTransform attributeName="transform" type="rotate" values="0 12 3;3 12 3;-3 12 3;0 12 3;0 12 3" keyTimes="0;0.05;0.15;0.2;1" begin="0.8s" dur="6s" repeatCount="indefinite" />
		</g>
		<path d="M10 20C10 21.1046 10.8954 22 12 22C13.1046 22 14 21.1046 14 20" stroke-dasharray="8" stroke-dashoffset="8">
			<animate attributeName="stroke-dashoffset" values="8;0" begin="0.6s" dur="0.2s" fill="freeze" />
			<animateTransform attributeName="transform" type="rotate" values="0 12 8;6 12 8;-6 12 8;0 12 8;0 12 8" keyTimes="0;0.05;0.15;0.2;1" begin="1s" dur="6s" repeatCount="indefinite" />
		</path>
	</g>
</svg>

<svg xmlns="http://www.w3.org/2000/svg" width="24" height="24" viewBox="0 0 24 24">
	<g fill="none" stroke="currentColor" stroke-width="2" stroke-linecap="round" stroke-linejoin="round">
		<g>
			<path d="M12 3v2" stroke-dasharray="4" stroke-dashoffset="4">
				<animate attributeName="stroke-dashoffset" values="4;0" dur="0.2s" fill="freeze" />
			</path>
			<path d="M12 5c-3.31 0 -6 2.69 -6 6l0 6c-1 0 -2 1 -2 2h8M12 5c3.31 0 6 2.69 6 6l0 6c1 0 2 1 2 2h-8" fill="currentColor" fill-opacity="0" stroke-dasharray="32" stroke-dashoffset="32">
				<animate attributeName="fill-opacity" values="0;0.3" begin="0.9s" dur="0.15s" fill="freeze" />
				<animate attributeName="stroke-dashoffset" values="32;0" begin="0.2s" dur="0.4s" fill="freeze" />
			</path>
			<animateTransform attributeName="transform" type="rotate" values="0 12 3;3 12 3;-3 12 3;0 12 3;0 12 3" begin="0.9s" dur="6s" keyTimes="0;0.05;0.15;0.2;1" fill="freeze" />
		</g>
		<path d="M10 20c0 1.1 0.9 2 2 2c1.1 0 2 -0.9 2 -2" stroke-dasharray="8" stroke-dashoffset="8">
			<animate attributeName="stroke-dashoffset" values="8;0" begin="0.6s" dur="0.2s" fill="freeze" />
			<animateTransform attributeName="transform" type="rotate" values="0 12 8;6 12 8;-6 12 8;0 12 8;0 12 8" begin="1.1s" dur="6s" keyTimes="0;0.05;0.15;0.2;1" fill="freeze" />
		</path>
	</g>
</svg>
